X:18284
T:Viel Freuden mit sich bringet...
R:
O:
S:source
B:Frau Nachtigall (Straburg - 1928)
Z:<anamnese@caramail.com> -- http://anamnese.fr.st
N:p.97
M:C
L:1/4
Q:1/4=150
K:E
B | "E"(B>A) G "B"(A>G) F | "E"(G2-E) G>F E | "A"F2 E "B7"(D>C) D | "E" E3-E2 :| 
F/G/ | "A"A2 A "C#"A2 "E"B | "A"c2 "G#"B "F#"(c>d) "E"e | "B"(d>c) B2 "F#7"(^A>G) A | 
"B"B3-B2 B | "E"(B>A) G "B"(A>G) F | "E"G2 E "Cm#"(G>F) E | "A"A2 E "B7"(D>C) D | "E"E3-E2 |]
W:Viel Freuden mit sich bringet die frlich Sommerzeit ;
W:im grnnen Wald jetzt singet wiedrum vor Freudigkeit
W:ohn' Unterla mit hellem Schall aus ihrem Hlslein 
W:zart sehr schn und sein Frau Nachtigall, kein' Mh' und Flei sie spart.
